optimized/24/outline/formula.svg

<svg viewBox="0 0 24 24" xmlns="http://www.w3.org/2000/svg" fill="currentColor" data-slot="icon">
  <g clip-path="url(#clip0_2117_12154)">
    <path d="M8.41463 2.5C6.29305 2.5 4.57317 4.17676 4.57317 6.24514V8.88701H2.26829C1.84398 8.88701 1.5 9.22236 1.5 9.63604C1.5 10.0497 1.84398 10.3851 2.26829 10.3851H4.57317V20.7264C4.57317 21.14 4.91715 21.4754 5.34146 21.4754C5.76578 21.4754 6.10976 21.14 6.10976 20.7264V10.3851H8.41463C8.83895 10.3851 9.18293 10.0497 9.18293 9.63604C9.18293 9.22236 8.83895 8.88701 8.41463 8.88701H6.10976V6.24514C6.10976 5.00411 7.14169 3.99806 8.41463 3.99806H9.43902C9.86334 3.99806 10.2073 3.66271 10.2073 3.24903C10.2073 2.83535 9.86334 2.5 9.43902 2.5H8.41463Z"/>
    <path d="M14.991 14.0351C14.7365 13.7041 14.2549 13.637 13.9154 13.8853C13.576 14.1335 13.5072 14.603 13.7618 14.9339L14.9447 16.4716L13.7275 17.9834C13.4655 18.3088 13.5237 18.7797 13.8575 19.0351C14.1913 19.2905 14.6742 19.2338 14.9362 18.9084L15.8992 17.7123L16.8349 18.9287C17.0895 19.2597 17.5711 19.3267 17.9106 19.0785C18.25 18.8303 18.3188 18.3608 18.0642 18.0299L16.8814 16.4924L18.0988 14.9804C18.3608 14.655 18.3026 14.1842 17.9688 13.9287C17.635 13.6733 17.1521 13.73 16.8901 14.0554L15.927 15.2517L14.991 14.0351Z"/>
    <path d="M12.082 11.0136C12.351 11.3335 12.303 11.8055 11.9748 12.0677C10.9281 12.904 10.2073 14.3284 10.2073 15.9825C10.2073 17.6366 10.9281 19.3353 11.9748 20.1716C12.303 20.4338 12.351 20.9058 12.082 21.2257C11.8131 21.5457 11.329 21.5925 11.0008 21.3303C9.5706 20.1876 8.67073 18.0499 8.67073 15.9825C8.67073 13.9152 9.5706 12.0517 11.0008 10.909C11.329 10.6468 11.8131 10.6936 12.082 11.0136Z"/>
    <path d="M19.1959 21.2257C18.927 20.9058 18.975 20.4338 19.3032 20.1716C20.3499 19.3353 20.9634 17.6366 20.9634 15.9825C20.9634 14.3284 20.2427 12.904 19.1959 12.0677C18.8678 11.8055 18.8197 11.3335 19.0887 11.0136C19.3576 10.6936 19.8417 10.6468 20.1699 10.909C21.6001 12.0517 22.5 13.9152 22.5 15.9825C22.5 18.0499 21.7074 20.1876 20.2772 21.3303C19.949 21.5925 19.4649 21.5457 19.1959 21.2257Z"/>
  </g>
  <defs>
    <clipPath id="clip0_2117_12154">
      <rect width="24" height="24"/>
    </clipPath>
  </defs>
</svg>

<svg xmlns="http://www.w3.org/2000/svg" viewBox="0 0 24 24" fill="currentColor" data-slot="icon">
  <g clip-path="url(#a)">
    <path d="M8.415 2.5c-2.122 0-3.842 1.677-3.842 3.745v2.642H2.268a.759.759 0 0 0-.768.749c0 .414.344.75.768.75h2.305v10.34c0 .414.344.75.768.75a.759.759 0 0 0 .769-.75v-10.34h2.305a.759.759 0 0 0 .768-.75.759.759 0 0 0-.768-.749H6.11V6.245c0-1.24 1.032-2.247 2.305-2.247h1.024a.759.759 0 0 0 .768-.749.759.759 0 0 0-.768-.749H8.415Z"/>
    <path d="M14.991 14.035a.781.781 0 0 0-1.076-.15.737.737 0 0 0-.153 1.049l1.183 1.538-1.218 1.511a.736.736 0 0 0 .13 1.052.782.782 0 0 0 1.08-.127l.962-1.196.936 1.217a.781.781 0 0 0 1.076.15.737.737 0 0 0 .153-1.05l-1.183-1.537L18.1 14.98a.736.736 0 0 0-.13-1.051.782.782 0 0 0-1.079.126l-.963 1.197-.936-1.217Z"/>
    <path d="M12.082 11.014a.736.736 0 0 1-.107 1.054c-1.047.836-1.768 2.26-1.768 3.915 0 1.654.721 3.352 1.768 4.189a.736.736 0 0 1 .107 1.054.782.782 0 0 1-1.081.104c-1.43-1.142-2.33-3.28-2.33-5.347 0-2.068.9-3.931 2.33-5.074a.782.782 0 0 1 1.081.105Z"/>
    <path d="M19.196 21.226a.736.736 0 0 1 .107-1.054c1.047-.837 1.66-2.535 1.66-4.19 0-1.654-.72-3.078-1.767-3.914a.736.736 0 0 1-.107-1.054.782.782 0 0 1 1.08-.105c1.431 1.143 2.331 3.006 2.331 5.073 0 2.068-.793 4.206-2.223 5.348a.782.782 0 0 1-1.081-.104Z"/>
  </g>
  <defs>
    <clipPath id="a">
      <rect width="24" height="24"/>
    </clipPath>
  </defs>
</svg>
